polaris-icons/icons/PasskeyFilledIcon.svg

<svg xmlns="http://www.w3.org/2000/svg" viewBox="0 0 20 20"><path d="M9 3C7.067 3 5.5 4.567 5.5 6.5C5.5 8.433 7.067 10 9 10C10.933 10 12.5 8.433 12.5 6.5C12.5 4.567 10.933 3 9 3Z"/>
<path d="M11.25 11.4173C10.543 11.1455 9.78207 11 8.99999 11C6.72169 11 4.62247 12.2352 3.51603 14.2268L3.07937 15.0128C2.58406 15.9043 3.22875 17 4.24867 17H12.861C12.7209 16.7218 12.6472 16.4138 12.6472 16.1003V13.925C11.8249 13.5672 11.25 12.7476 11.25 11.7936V11.4173Z"/>
<path fill-rule="evenodd" d="M13.8105 16.648C13.7039 16.4852 13.6472 16.2948 13.6472 16.1003V13.117L13.5734 13.117C12.8819 13.117 12.3143 12.5867 12.2551 11.9106C12.2517 11.872 12.25 11.833 12.25 11.7936V10.875C12.25 9.28718 13.5372 8 15.125 8C16.7128 8 18 9.28718 18 10.875V11.7936C18 12.5245 17.4075 13.117 16.6766 13.117H16.2475V13.2768L16.6311 13.7457C17.0472 14.2542 16.8589 15.0174 16.2595 15.2765L16.5182 15.4873C16.9986 15.8787 17.011 16.6084 16.5442 17.0159L15.8231 17.6454C15.3658 18.0446 14.6612 17.9476 14.3287 17.4397L13.8105 16.648ZM16 10.875C16 11.3582 15.6082 11.75 15.125 11.75C14.6418 11.75 14.25 11.3582 14.25 10.875C14.25 10.3918 14.6418 10 15.125 10C15.6082 10 16 10.3918 16 10.875Z"/>
</svg>

<svg xmlns="http://www.w3.org/2000/svg" viewBox="0 0 20 20"><path d="M9 3c-1.933 0-3.5 1.567-3.5 3.5s1.567 3.5 3.5 3.5 3.5-1.567 3.5-3.5-1.567-3.5-3.5-3.5Z"/><path d="M11.25 11.417c-.707-.271-1.468-.417-2.25-.417-2.278 0-4.378 1.235-5.484 3.227l-.437.786c-.495.891.15 1.987 1.17 1.987h8.612c-.14-.278-.214-.586-.214-.9v-2.175c-.822-.358-1.397-1.177-1.397-2.131v-.377Z"/><path fill-rule="evenodd" d="M13.81 16.648c-.106-.163-.163-.353-.163-.548v-2.983h-.074c-.691 0-1.259-.53-1.318-1.206-.003-.039-.005-.078-.005-.117v-.919c0-1.588 1.287-2.875 2.875-2.875s2.875 1.287 2.875 2.875v.919c0 .73-.593 1.323-1.323 1.323h-.43v.16l.384.469c.416.508.228 1.271-.372 1.53l.26.211c.48.392.492 1.121.025 1.529l-.72.63c-.458.399-1.163.302-1.495-.206l-.519-.792Zm2.19-5.773c0 .483-.392.875-.875.875s-.875-.392-.875-.875.392-.875.875-.875.875.392.875.875Z"/></svg>
